X:240
T:Waltz. CJF.240
R:Waltz
S:C.J.Fox MS, 1829/33, Beverley,E.Yorks.
N:In the title line “(from Watson)”. – PJH.
B:Kidson Coll.Mitchell Lib.M1805
O:England
A:East Yorkshire
Z:vmp.P J Headford 2000 & 2008
M:3/8
L:1/16
Q:3/8=60
K:G
D2|B3.A.G.F|.E.F.G.^G.A.B|(dc) F2F2|(GB) D2D2|\
B3.A.G.F|.E.F.G.^G.A.B|(dc) F2F2|G4:|!
|:B2|^ABBB^dB|e3fge|^GAAA^cA|d3efd|\
B3AGF|”p”EFG^GAB|(dc) F2F2|G4:|!
|:D2|D2G2B2|d4B2|A3{dc^Bc}Bcd|(^AB).G2 D2|\
D2G2B2|d4B2|”~”A3BcA|G4:|!
|:” f”d2|(dc)A2 e2|(ed)B2 d2|\
dcBced|d4D2|D2G2B2|d4B2|”~”A3BcA|G4:|

